mobile/24/svg/bookmark-tray-24.svg

<svg width="24" height="24" viewBox="0 0 24 24" fill="none" xmlns="http://www.w3.org/2000/svg">
<path fill-rule="evenodd" clip-rule="evenodd" d="M13.7849 3.21131C13.1422 1.59723 10.8577 1.59723 10.2151 3.21131L9.07851 6.06752L6.01152 6.26582C4.27811 6.37786 3.57218 8.55035 4.90696 9.66114L7.27158 11.6249L6.51293 14.6035C6.08528 16.2866 7.93251 17.6289 9.4015 16.7016L11.9999 15.0592L14.5979 16.7019C16.0653 17.6282 17.9155 16.2879 17.4858 14.6026L16.7274 11.6249L19.0922 9.66095C20.4287 8.55031 19.722 6.37787 17.9884 6.26582L14.9215 6.06752L13.7849 3.21131ZM10.5 7.22851L11.8409 3.85869C11.8601 3.81068 11.8835 3.78934 11.9026 3.77709C11.926 3.76205 11.9598 3.75075 12 3.75075C12.0402 3.75075 12.074 3.76205 12.0974 3.77709C12.1165 3.78934 12.1399 3.81068 12.1591 3.85869L13.5 7.22851C13.6249 7.54242 13.9194 7.75638 14.2565 7.77818L17.8756 8.01218C17.9272 8.01552 17.9546 8.03117 17.9722 8.04557C17.9937 8.06322 18.015 8.09189 18.0274 8.1301C18.0398 8.1683 18.0395 8.20396 18.0325 8.23094C18.0267 8.25294 18.0137 8.28181 17.9737 8.31505L15.184 10.6319C14.9241 10.8476 14.8117 11.1937 14.8951 11.521L15.7902 15.0353C15.803 15.0855 15.7965 15.1163 15.7883 15.1373C15.7782 15.1631 15.7576 15.1921 15.725 15.2158C15.6924 15.2394 15.6583 15.2503 15.6303 15.2519C15.6074 15.2532 15.5759 15.2497 15.5321 15.2221L12.4676 13.2844C12.182 13.1039 11.8181 13.1039 11.5325 13.2844L8.46691 15.2221C8.42303 15.2498 8.39159 15.2532 8.36886 15.2519C8.341 15.2503 8.30698 15.2395 8.27446 15.2159C8.24195 15.1923 8.22119 15.1632 8.21101 15.1371C8.20271 15.1159 8.19629 15.0848 8.20903 15.0345L9.10391 11.521C9.18727 11.1937 9.07483 10.8476 8.815 10.6319L6.02545 8.31522C5.98589 8.28223 5.97299 8.25353 5.96724 8.2315C5.96018 8.20445 5.95991 8.16868 5.97238 8.13035C5.98486 8.09202 6.00614 8.06328 6.02774 8.04559C6.04537 8.03116 6.07279 8.01551 6.12444 8.01218L9.74344 7.77818C10.0806 7.75638 10.3751 7.54242 10.5 7.22851Z" fill="black"/>
<path d="M5 19.5V17H3.25V19.5C3.25 20.8802 4.36975 22 5.75 22H18.25C19.6302 22 20.75 20.8802 20.75 19.5V17H19V19.5C19 19.9138 18.6638 20.25 18.25 20.25H5.75C5.33625 20.25 5 19.9138 5 19.5Z" fill="black"/>
</svg>

<svg width="24" height="24" fill="none" xmlns="http://www.w3.org/2000/svg"><path fill-rule="evenodd" clip-rule="evenodd" d="M13.785 3.211c-.643-1.614-2.927-1.614-3.57 0L9.08 6.068l-3.067.198c-1.734.112-2.44 2.284-1.105 3.395l2.365 1.964-.76 2.979c-.427 1.683 1.42 3.025 2.89 2.098L12 15.059l2.598 1.643c1.467.926 3.318-.414 2.888-2.1l-.759-2.977 2.365-1.964c1.337-1.11.63-3.283-1.104-3.395l-3.066-.198-1.137-2.857zM10.5 7.23l1.34-3.37a.16.16 0 0 1 .063-.082.182.182 0 0 1 .097-.026c.04 0 .074.011.097.026a.16.16 0 0 1 .062.082l1.341 3.37c.125.313.42.527.757.55l3.619.233a.159.159 0 0 1 .096.034.182.182 0 0 1 .055.084.183.183 0 0 1 .005.1.16.16 0 0 1-.058.085l-2.79 2.317a.875.875 0 0 0-.289.889l.895 3.514a.158.158 0 0 1-.002.102.182.182 0 0 1-.063.079.183.183 0 0 1-.095.036.16.16 0 0 1-.098-.03l-3.064-1.938a.875.875 0 0 0-.935 0l-3.066 1.938a.16.16 0 0 1-.098.03.182.182 0 0 1-.095-.036.182.182 0 0 1-.063-.079.16.16 0 0 1-.002-.103l.895-3.513a.875.875 0 0 0-.289-.89l-2.79-2.316a.159.159 0 0 1-.058-.083.183.183 0 0 1 .005-.102.183.183 0 0 1 .056-.084.159.159 0 0 1 .096-.034l3.62-.234a.875.875 0 0 0 .756-.55z" fill="#000"/><path d="M5 19.5V17H3.25v2.5a2.5 2.5 0 0 0 2.5 2.5h12.5a2.5 2.5 0 0 0 2.5-2.5V17H19v2.5a.75.75 0 0 1-.75.75H5.75A.75.75 0 0 1 5 19.5z" fill="#000"/></svg>
